movekom_app/assets/icons/pdf_view.svg

<svg height="146.071" viewBox="0 0 118 146.071" width="118" xmlns="http://www.w3.org/2000/svg"><g fill="#fff"><g transform="translate(23.929)"><path d="m300.824 256h-10.259a2.565 2.565 0 0 0 -2.565 2.565v20.518a2.565 2.565 0 0 0 2.565 2.565h10.259a5.129 5.129 0 0 0 5.129-5.129v-15.39a5.129 5.129 0 0 0 -5.129-5.129zm0 20.518h-7.694v-15.389h7.694z" transform="translate(-241.835 -214.964)"/><path d="m431.388 261.129v-5.129h-12.823a2.565 2.565 0 0 0 -2.565 2.565v23.082h5.129v-10.259h10.259v-5.129h-10.259v-5.129z" transform="translate(-349.317 -214.964)"/><path d="m5.129 74.377v-66.683a2.565 2.565 0 0 1 2.565-2.565h38.471v10.259a5.129 5.129 0 0 0 5.129 5.129h10.259v7.694h5.129v-10.258a2.564 2.564 0 0 0 -.744-1.821l-15.387-15.388a2.565 2.565 0 0 0 -1.821-.744h-41.036a7.694 7.694 0 0 0 -7.694 7.694v66.683a7.694 7.694 0 0 0 7.694 7.694h17.953v-5.13h-17.953a2.565 2.565 0 0 1 -2.565-2.564z"/><path d="m172.824 256h-10.259a2.565 2.565 0 0 0 -2.565 2.565v23.082h5.129v-7.694h7.694a5.129 5.129 0 0 0 5.129-5.129v-7.694a5.129 5.129 0 0 0 -5.128-5.13zm0 12.824h-7.694v-7.694h7.694z" transform="translate(-134.353 -214.964)"/></g><text font-family="Helvetica-Light, Helvetica" font-size="15" font-weight="300" transform="translate(0 92.071)"><tspan x="27.747" y="12">MANUAL</tspan><tspan x="6.905" y="27">CALEFACCION</tspan></text></g></svg>

<svg xmlns="http://www.w3.org/2000/svg" width="82.071" height="82.071" viewBox="0 0 82.071 82.071">
  <g id="Grupo_1038" data-name="Grupo 1038" transform="translate(-202.929 -197.929)">
    <g id="Grupo_121" data-name="Grupo 121" transform="translate(47 43)">
      <g id="Grupo_120" data-name="Grupo 120" transform="translate(155.929 154.929)">
        <path id="Trazado_385" data-name="Trazado 385" d="M300.824,256H290.565A2.565,2.565,0,0,0,288,258.565v20.518a2.565,2.565,0,0,0,2.565,2.565h10.259a5.129,5.129,0,0,0,5.129-5.129V261.129A5.129,5.129,0,0,0,300.824,256Zm0,20.518h-7.694V261.129h7.694Z" transform="translate(-241.835 -214.964)" fill="#fff"/>
        <path id="Trazado_386" data-name="Trazado 386" d="M431.388,261.129V256H418.565A2.565,2.565,0,0,0,416,258.565v23.082h5.129V271.388h10.259v-5.129H421.129v-5.129Z" transform="translate(-349.317 -214.964)" fill="#fff"/>
        <path id="Trazado_387" data-name="Trazado 387" d="M5.129,74.377V7.694A2.565,2.565,0,0,1,7.694,5.129H46.165V15.388a5.129,5.129,0,0,0,5.129,5.129H61.553v7.694h5.129V17.953a2.564,2.564,0,0,0-.744-1.821L50.551.744A2.565,2.565,0,0,0,48.73,0H7.694A7.694,7.694,0,0,0,0,7.694V74.377a7.694,7.694,0,0,0,7.694,7.694H25.647V76.941H7.694A2.565,2.565,0,0,1,5.129,74.377Z" transform="translate(0 0)" fill="#fff"/>
        <path id="Trazado_388" data-name="Trazado 388" d="M172.824,256H162.565A2.565,2.565,0,0,0,160,258.565v23.082h5.129v-7.694h7.694a5.129,5.129,0,0,0,5.129-5.129v-7.694A5.129,5.129,0,0,0,172.824,256Zm0,12.824h-7.694v-7.694h7.694Z" transform="translate(-134.353 -214.964)" fill="#fff"/>
      </g>
    </g>
  </g>
</svg>
